X: 5974
T: Camptown Races
R: polka
M: 2/4
K: Gmajor
|:B/d/|ed Bd|ed BG|BA AG/A/|BA AB/d/|
ed Bd|ed BG|AG/A/ B/c/B/A/|G2- G:|
|:A|GA Bd|g2 g2|f/g/f/e/ fe|d2 dB/d/|
ed Bd|e/f/e/d/ BG|AG/A/ BB/A/|G2 G:|

